X: 599
M:C|
L:1/8
K:B phrygian
e | E/E/E (BE) {/^c}dEBe | {/^c}dBAF DEFD | E/E/E (BE) {/^c}dEBe | {/^c}dBAF BBE :|
(Ee)(ef) {/f}gfed | (B{/^c}d)(AF) DEFf | afge fde^c | {/^c}dBAF BB [B,E] |]


